src/images/Icon-Hash-Protected.svg

<?xml version="1.0" encoding="UTF-8"?>
<svg width="20px" height="25px" viewBox="0 0 20 25" version="1.1" xmlns="http://www.w3.org/2000/svg" xmlns:xlink="http://www.w3.org/1999/xlink">
    <!-- Generator: Sketch 50.2 (55047) - http://www.bohemiancoding.com/sketch -->
    <title>Icon-Hash-Protected</title>
    <desc>Created with Sketch.</desc>
    <defs></defs>
    <g id="Icon-Hash-Protected" stroke="none" stroke-width="1" fill="none" fill-rule="evenodd">
        <path d="M19.7338093,5.12664527 C19.7413052,5.17219359 22.4800246,20.9580258 10.2199594,24.0553189 C10.1565261,24.0776584 10.0861426,24.0823427 10.0160754,24.0648296 L10.0162866,24.0639602 C-2.07093484,21.0388544 0.123568528,5.70306876 0.206654041,5.14831152 C0.208853532,5.12632698 0.213111739,5.10423593 0.219534262,5.08226932 C0.275436645,4.89131051 0.474323429,4.7822042 0.663690911,4.8385759 L0.663444568,4.8394276 C5.19229777,6.18735382 9.38438426,1.49083742 9.68481503,1.14584593 C9.69998272,1.12526313 9.71752588,1.10601113 9.73747981,1.08849804 C9.88646433,0.957832855 10.112326,0.973695874 10.2419014,1.12393237 L10.2416726,1.12533413 C10.2542361,1.13991953 14.5751788,6.22216901 19.2616576,4.84471794 C19.2813474,4.83769137 19.3019171,4.83226179 19.3232611,4.82869528 C19.5180481,4.79608219 19.702207,4.92887653 19.7345483,5.12530043 L19.7338092,5.12663122 L19.7338093,5.12664527 Z M18.4652468,6.49701596 C16.2765402,6.7848912 14.1054161,6.00785701 12.2533198,4.7778905 C11.4933354,4.27318717 10.6823377,3.62534393 9.97443479,2.93677614 C9.21247941,3.66587019 8.28432618,4.37279919 7.52587478,4.85317866 C5.71625533,5.99937498 3.62211157,6.71058105 1.50961659,6.47602722 C1.3317394,8.76371462 1.45992573,11.1648052 1.94833581,13.3654459 C2.96840601,17.9615165 5.48082432,21.3319292 10.0773974,22.5900369 C14.6603746,21.1056816 17.165052,17.6248944 18.1146581,12.9499977 C18.5034577,11.0358306 18.6553978,8.60081637 18.4652392,6.49698442 L18.4652468,6.49701596 Z M10.4086352,14.6540225 L8.79294691,14.6540225 L8.19020309,17.6700627 L6.6582292,17.6700627 L7.26097302,14.6540225 L5.36065568,14.6540225 L5.36065568,13.3887569 L7.51211628,13.3887569 L7.93068838,11.2995973 L5.98851384,11.2995973 L5.98851384,10.0196193 L8.19020309,10.0196193 L8.80131836,6.95944196 L10.3249208,6.95944196 L9.71380554,10.0196193 L11.3378653,10.0196193 L11.9489806,6.95944196 L13.4809544,6.95944196 L12.8698392,10.0196193 L14.703185,10.0196193 L14.703185,11.2995973 L12.6103245,11.2995973 L12.1917524,13.3887569 L14.0669554,13.3887569 L14.0669554,14.6540225 L11.9406091,14.6540225 L11.3378653,17.6700627 L9.8058914,17.6700627 L10.4086352,14.6540225 Z M9.04409017,13.3887569 L10.6597785,13.3887569 L11.0783506,11.2995973 L9.45429083,11.2995973 L9.04409017,13.3887569 Z" id="Shield" fill="#9B9B9B" fill-rule="nonzero"></path>
    </g>
</svg>

<svg viewBox="0 0 20 25" xmlns="http://www.w3.org/2000/svg">
  <path d="M19.734 5.127c.007.045 2.746 15.831-9.514 18.928a.354.354 0 0 1-.204.01v-.001C-2.07 21.039.124 5.704.206 5.148a.357.357 0 0 1 .457-.31v.001c4.53 1.348 8.721-3.348 9.022-3.693a.355.355 0 0 1 .557-.022v.001c.012.015 4.333 5.097 9.02 3.72a.358.358 0 0 1 .473.28l-.001.002zm-1.269 1.37c-2.188.288-4.36-.49-6.212-1.72a16.306 16.306 0 0 1-2.279-1.84 16.65 16.65 0 0 1-2.448 1.916C5.716 6 3.622 6.711 1.51 6.476c-.178 2.288-.05 4.689.438 6.89 1.02 4.596 3.533 7.966 8.13 9.224 4.582-1.484 7.087-4.965 8.037-9.64.388-1.914.54-4.35.35-6.453zm-8.056 8.157H8.793L8.19 17.67H6.658l.603-3.016h-1.9v-1.265h2.151l.419-2.09H5.989v-1.28H8.19l.611-3.06h1.524l-.611 3.06h1.624l.611-3.06h1.532l-.611 3.06h1.833v1.28H12.61l-.418 2.09h1.875v1.265h-2.126l-.603 3.016H9.806l.603-3.016zm-1.365-1.265h1.616l.418-2.09H9.454l-.41 2.09z" fill="#9B9B9B" fill-rule="nonzero"/>
</svg>
